X:1
T:Loughton, CM
T:Loughton, CM
T:Benjamin Milgrove, 1781
T:Public Domain Courtesy of the Cyber Hymnal™
C:Benjamin Milgrove, 1781
Z:Public Domain
Z:Courtesy of the Cyber Hymnal™
%%score ( 1 2 ) ( 3 4 )
L:1/8
Q:1/4=110
M:4/4
K:G
V:1 treble 
V:2 treble 
V:3 bass 
V:4 bass 
V:1
 [B,D]2 ([G,D][A,D]) [B,G]2 [DG]2 | [CE]2 [EA]2 [DF]2 [FB]2 | [EG]2 [Cc]2 [EA]2 [EG]2 | %3
 [DF]6 [DA]2 | [Fd]2 [EB]2 [Ec]2 [DA]2 | [DB]2 [DG]2 [DA]2 [DF]2 | [DG]2 [Cc]2 B2 z x3 | [B,G]8 |] %8
V:2
 x8 | x8 | x8 | x8 | x8 | x8 | x4 D3 (A2 C) | x8 |] %8
V:3
 G,2 ([G,B,][F,A,]) [E,G,]2 [B,,B,]2 | [C,G,]2 [A,,C]2 [D,A,]2 [B,,D]2 | %2
 [E,B,]2 [A,,A,]2 [C,E,]2 [^C,A,]2 | [D,A,]6 [D,F,]2 | [C,B,]2 [E,G,]2 [A,,A,]2 [D,F,]2 | %5
 [G,,G,]2 [B,,G,]2 [D,F,]2 [C,A,]2 | [B,,G,]2 [E,G,]2 [D,G,]2 [D,F,]2 x2 | [G,,G,]8 |] %8
V:4
 G,2 x6 | x8 | x8 | x8 | x8 | x8 | x10 | x8 |] %8

